dist/svg/vending-machine-fill.svg

<svg xmlns="http://www.w3.org/2000/svg" viewBox="0 0 24 24"><path d="M5.617 2.283q-.873.101-1.552.781a2.74 2.74 0 0 0-.696 1.116l-.109.32v15l.109.32c.151.445.362.783.695 1.116s.671.544 1.116.695l.32.109h13l.32-.109a2.74 2.74 0 0 0 1.116-.695c.333-.333.544-.671.695-1.116l.109-.32v-15l-.109-.32a2.74 2.74 0 0 0-.696-1.116c-.472-.471-.961-.709-1.606-.783-.425-.049-12.293-.046-12.712.002m6.838 2.537a1.77 1.77 0 0 1 1.266 1.405c.022.132.038 1.253.038 2.555 0 2.478-.012 2.654-.202 3.025-.113.223-.529.639-.752.752-.367.188-.562.202-2.805.202s-2.438-.014-2.805-.202c-.223-.113-.639-.529-.752-.752-.19-.371-.202-.547-.202-3.025 0-1.302.016-2.423.038-2.555.108-.657.621-1.234 1.248-1.403.324-.087 4.595-.088 4.928-.002m4.722.458a.739.739 0 0 1 .348 1.246c-.197.197-.364.236-1.025.236s-.828-.039-1.025-.236c-.405-.405-.217-1.115.33-1.244.189-.044 1.182-.046 1.372-.002m-9.257.989c-.16.059-.16.064-.16 2.494 0 2.223.004 2.35.073 2.413.066.06.275.066 2.174.066 1.984 0 2.104-.004 2.167-.073.06-.066.066-.292.066-2.413 0-1.956-.009-2.351-.057-2.416-.055-.075-.128-.078-2.13-.085-1.14-.004-2.1.002-2.133.014m9.257 1.011a.739.739 0 0 1 .348 1.246c-.197.197-.364.236-1.025.236s-.828-.039-1.025-.236c-.405-.405-.217-1.115.33-1.244.189-.044 1.182-.046 1.372-.002m0 2a.739.739 0 0 1 .348 1.246c-.197.197-.364.236-1.025.236s-.828-.039-1.025-.236c-.405-.405-.217-1.115.33-1.244.189-.044 1.182-.046 1.372-.002m-4.722 4.542a1.77 1.77 0 0 1 1.266 1.405c.05.304.05 2.244 0 2.548a1.77 1.77 0 0 1-1.144 1.373l-.261.094H7.684l-.261-.094a1.77 1.77 0 0 1-1.144-1.373c-.05-.304-.05-2.244 0-2.548.108-.657.621-1.234 1.248-1.403.324-.087 4.595-.088 4.928-.002M7.92 15.267c-.152.056-.16.121-.16 1.241 0 1.039.004 1.096.08 1.172.078.078.133.08 2.16.08s2.082-.002 2.16-.08c.076-.076.08-.133.08-1.172 0-.88-.011-1.108-.057-1.17-.055-.075-.128-.078-2.13-.085-1.14-.004-2.1.002-2.133.014" fill-rule="evenodd"/></svg>

<svg fill="none" xmlns="http://www.w3.org/2000/svg" viewBox="0 0 24 24"><path d="M5.617 2.283 C 5.034 2.351,4.519 2.610,4.065 3.064 C 3.732 3.396,3.521 3.735,3.369 4.180 L 3.260 4.500 3.260 12.000 L 3.260 19.500 3.369 19.820 C 3.520 20.265,3.731 20.603,4.064 20.936 C 4.397 21.269,4.735 21.480,5.180 21.631 L 5.500 21.740 12.000 21.740 L 18.500 21.740 18.820 21.631 C 19.265 21.480,19.603 21.269,19.936 20.936 C 20.269 20.603,20.480 20.265,20.631 19.820 L 20.740 19.500 20.740 12.000 L 20.740 4.500 20.631 4.180 C 20.479 3.735,20.268 3.396,19.935 3.064 C 19.463 2.593,18.974 2.355,18.329 2.281 C 17.904 2.232,6.036 2.235,5.617 2.283 M12.455 4.820 C 13.098 4.988,13.612 5.558,13.721 6.225 C 13.743 6.357,13.759 7.478,13.759 8.780 C 13.759 11.258,13.747 11.434,13.557 11.805 C 13.444 12.028,13.028 12.444,12.805 12.557 C 12.438 12.745,12.243 12.759,10.000 12.759 C 7.757 12.759,7.562 12.745,7.195 12.557 C 6.972 12.444,6.556 12.028,6.443 11.805 C 6.253 11.434,6.241 11.258,6.241 8.780 C 6.241 7.478,6.257 6.357,6.279 6.225 C 6.387 5.568,6.900 4.991,7.527 4.822 C 7.851 4.735,12.122 4.734,12.455 4.820 M17.177 5.278 C 17.742 5.409,17.938 6.111,17.525 6.524 C 17.328 6.721,17.161 6.760,16.500 6.760 C 15.839 6.760,15.672 6.721,15.475 6.524 C 15.070 6.119,15.258 5.409,15.805 5.280 C 15.994 5.236,16.987 5.234,17.177 5.278 M7.920 6.267 C 7.760 6.326,7.760 6.331,7.760 8.761 C 7.760 10.984,7.764 11.111,7.833 11.174 C 7.899 11.234,8.108 11.240,10.007 11.240 C 11.991 11.240,12.111 11.236,12.174 11.167 C 12.234 11.101,12.240 10.875,12.240 8.754 C 12.240 6.798,12.231 6.403,12.183 6.338 C 12.128 6.263,12.055 6.260,10.053 6.253 C 8.913 6.249,7.953 6.255,7.920 6.267 M17.177 7.278 C 17.742 7.409,17.938 8.111,17.525 8.524 C 17.328 8.721,17.161 8.760,16.500 8.760 C 15.839 8.760,15.672 8.721,15.475 8.524 C 15.070 8.119,15.258 7.409,15.805 7.280 C 15.994 7.236,16.987 7.234,17.177 7.278 M17.177 9.278 C 17.742 9.409,17.938 10.111,17.525 10.524 C 17.328 10.721,17.161 10.760,16.500 10.760 C 15.839 10.760,15.672 10.721,15.475 10.524 C 15.070 10.119,15.258 9.409,15.805 9.280 C 15.994 9.236,16.987 9.234,17.177 9.278 M12.455 13.820 C 13.098 13.988,13.612 14.558,13.721 15.225 C 13.771 15.529,13.771 17.469,13.721 17.773 C 13.618 18.402,13.182 18.926,12.577 19.146 L 12.316 19.240 10.000 19.240 L 7.684 19.240 7.423 19.146 C 6.818 18.926,6.382 18.402,6.279 17.773 C 6.229 17.469,6.229 15.529,6.279 15.225 C 6.387 14.568,6.900 13.991,7.527 13.822 C 7.851 13.735,12.122 13.734,12.455 13.820 M7.920 15.267 C 7.768 15.323,7.760 15.388,7.760 16.508 C 7.760 17.547,7.764 17.604,7.840 17.680 C 7.918 17.758,7.973 17.760,10.000 17.760 C 12.027 17.760,12.082 17.758,12.160 17.680 C 12.236 17.604,12.240 17.547,12.240 16.508 C 12.240 15.628,12.229 15.400,12.183 15.338 C 12.128 15.263,12.055 15.260,10.053 15.253 C 8.913 15.249,7.953 15.255,7.920 15.267 " stroke="none" fill-rule="evenodd" fill="currentColor"/></svg>
